X:1
T:Title
%%score ( 1 2 ) { 3 | 4 }
L:1/8
Q:1/4=110
M:4/4
K:C
V:1 treble nm="Grand Piano, Unnamed-000"
V:2 treble 
V:3 bass nm="Choir Pad, Gott Sei Dank, 77.77"
V:4 bass 
V:1
 CDEF [DG]2 [CG]2 | [CA]2 [FB]2 [Ec]4 | Bc [Dd]2 GA [DB]2 | [EA]2 A-[CA] [B,G]4 | %4
w: By~Johann~A.~Freylinghausen~(Halle,~Germany:~1704) * * * * *||||
 [CG]2 cB A-[DA] [EG]2 | [DF]2 [CE]2 [B,D]4 | [CG]2 [A,C]2 [B,F]2 [CE]2 | [CD]2 [B,D]2 C4- | %8
w: ||||
 C4 z4 |] %9
w: |
V:2
 z2 C2 z4 | x8 | D2 z2 E2 z2 | z2 .D2 z4 | z2 C2 .C2 z2 | x8 | x8 | x8 | x8 |] %9
V:3
 E,2 A,2 G,F, E,2 | F,E, G,2 G,4 | G,2 A,2 B,2 G,2 | G,2 ^F,2 G,4 | E,2 G,2 A,B, C2 | A,2 G,2 z4 | %6
 G,2 F,2 G,2 G,2 | A,2 G,F, E,4- | E,4 z4 |] %9
V:4
 C,2 A,,2 B,,2 C,2 | z2 D,2 C,4 | z2 ^F,2 E,2 B,,2 | C,2 D,2 G,,4 | C,2 E,2 F,2 C,2 | %5
 D,2 E,F, G,4 | E,2 z2 D,2 C,2 | F,,2 G,,2 C,4- | C,4 z4 |] %9

